X: 18791
T: If We Hadn't Any Women In The World
R: barndance
M: 4/4
K: Dmajor
|:ABAF DEFD|B,2 GB, A,2 DE|F2AF BFAF|B,2 E2 E2 FG|ABAF DEFD|B,2GB,A,2 DE|F2AF EDEF|D2 D2:|
|:dc|B3c d2c2|B2 A2 A2 FG|F2AF BFAF|B,2 E2 E2 FG|ABAF DEFD|B,2GB,A,2 DE|F2AF EDEF|D2 D2:|

